X: 1
T: Robertson's Hornpipe
N: Tune for the 8x32H3 dance West's Hornpipe
B: RSCDS 39-8
B: RSCDS "Five Traditional Scottish Country Dances for 1965"
R: hornpipe, reel
B: Kerr (Merry Melodies) v.2 #334 p.37 c.1880
B: Stewart-Robertson (The Athole Collection) p.300 1884
Z: 2001 John Chambers <jc:trillian.mit.edu>
M: C|
L: 1/8
K: Bb
bf |\
"Bb"d2B2 B2dB | "F"cAF2 F2BA | "Eb"GFED  "F7"EGFE | "Bb"D2B,2 B,2 bf |\
"Bb"d2B2 B2bf | "C7"g2=e2 c2BA | Bcd=e fage | "F"f2F2 F2 :|
|: fe |\
"Bb"dB ~B2 dB ~B2 | "Eb"GE ~E2 GE ~E2 | "Cm"cdeg "(C7)"fdcB | "F"A2F2 F2 de |\
"Bb"fBAB "Eb"gBAB | "Bb"bBAB "Gm"fBAB | "Cm"Ggfe "F7"dcBA | "Bb"B2d2 B2 :|
